X:1
T:Miss Graham of Inchbrakie’s Strathspey
T:Miss Graham of Inchbrakie’s Strathspey
T:Nathaniel Gow (1763-1831)
C:Nathaniel Gow (1763-1831)
L:1/8
Q:1/4=120
M:4/4
K:C
V:1 treble 
V:1
"^Very slow with expression." G | c>d{cd} e>d{B} Tc>AGE | (CG c)B/c/ d[B,D][B,D]G | %3
 c>d{cd} Te>d{B} cA GE | G,<G, TA<.B,{B,} C2 C :| e/f/ | Tg>a{a} gf/e/ c'gec | %7
 Tfa/f/ eg/e/ Td>cde | Tg>a{a} gf/e/ c'gec | f>de>B{B} c2 ce | Tg>a{a} gf/e c'gec | %11
 (f/a/g/f/) (e/g/f/e/) Td>cde | G>c{c}e>d{B} c>A GE | G,G,TA,B, C2 C || %14

